resources/haticons/SVG/paste1.svg

<!-- Generated by IcoMoon.io -->
<svg version="1.1" xmlns="http://www.w3.org/2000/svg" width="24" height="24" viewBox="0 0 24 24">
<title>paste1</title>
<path d="M17.962 1.64h-2.268c-0.084-0.959-0.909-1.64-1.757-1.64h-4.025c-0.984 0-1.68 0.799-1.759 1.64h-2.117c-2.087 0-3.726 1.64-3.726 3.726v14.907c0 2.087 1.64 3.726 3.726 3.726h11.925c2.087 0 3.726-1.64 3.726-3.726v-14.907c0-2.087-1.64-3.726-3.727-3.726zM9.764 1.938c0-0.149 0.149-0.298 0.298-0.298h4.025c0.149 0 0.298 0.149 0.298 0.298v2.534c0 0.149-0.149 0.298-0.298 0.298h-4.025c-0.149 0-0.298-0.149-0.298-0.298zM20.199 20.274c0 1.192-1.043 2.236-2.236 2.236h-11.926c-1.192 0-2.236-1.043-2.236-2.236v-14.907c0-1.192 1.043-2.236 2.236-2.236h2.087v1.192c0 1.043 0.894 1.789 1.789 1.789h4.025c1.043 0 1.789-0.745 1.789-1.789v-1.192h2.236c1.192 0 2.236 1.043 2.236 2.236zM16.472 18.037h-8.943c-0.447 0-0.745 0.298-0.745 0.745s0.298 0.745 0.745 0.745h8.944c0.447 0 0.745-0.298 0.745-0.745s-0.299-0.745-0.746-0.745zM16.472 13.565h-8.943c-0.447 0-0.745 0.298-0.745 0.745s0.298 0.745 0.745 0.745h8.944c0.447 0 0.745-0.298 0.745-0.745s-0.299-0.745-0.746-0.745zM16.472 9.093h-8.943c-0.447 0-0.745 0.298-0.745 0.745s0.298 0.745 0.745 0.745h8.944c0.447 0 0.745-0.298 0.745-0.745s-0.299-0.745-0.746-0.745z"></path>
</svg>

<svg xmlns="http://www.w3.org/2000/svg" width="24" height="24"><path d="M17.962 1.64h-2.268C15.61.681 14.785 0 13.937 0H9.912c-.984 0-1.68.799-1.759 1.64H6.036A3.69 3.69 0 0 0 2.31 5.366v14.907a3.69 3.69 0 0 0 3.726 3.726h11.925a3.69 3.69 0 0 0 3.726-3.726V5.366A3.69 3.69 0 0 0 17.96 1.64zm-8.198.298a.32.32 0 0 1 .298-.298h4.025a.32.32 0 0 1 .298.298v2.534a.32.32 0 0 1-.298.298h-4.025a.32.32 0 0 1-.298-.298zm10.435 18.336c0 1.192-1.043 2.236-2.236 2.236H6.037c-1.192 0-2.236-1.043-2.236-2.236V5.367c0-1.192 1.043-2.236 2.236-2.236h2.087v1.192c0 1.043.894 1.789 1.789 1.789h4.025c1.043 0 1.789-.745 1.789-1.789V3.131h2.236c1.192 0 2.236 1.043 2.236 2.236zm-3.727-2.237H7.529c-.447 0-.745.298-.745.745s.298.745.745.745h8.944c.447 0 .745-.298.745-.745s-.299-.745-.746-.745zm0-4.472H7.529c-.447 0-.745.298-.745.745s.298.745.745.745h8.944c.447 0 .745-.298.745-.745s-.299-.745-.746-.745zm0-4.472H7.529c-.447 0-.745.298-.745.745s.298.745.745.745h8.944c.447 0 .745-.298.745-.745s-.299-.745-.746-.745z"/></svg>
